X: 08069
T: MARI\'EAD'S JIG
C: Bob McQuillen 28 Feb 91
B: Bob's Note Book 8 #69
%R: jig
Z: 2021 John Chambers <jc:trillian.mit.edu>
M: 6/8
L: 1/8
K: Em
D \
| EGA BdB | GAB AGA | BGE AFD | E>FE E2D |\
| EGB ded | BGB AGA | Beg fed | Bee e2 :|
|: f \
| gfe fed | edB def | gag fed | Bed ega |\
| bge afd | geg dBA | Bde gba | gee e2 :|
%%begintext align
%% If you go to one of
%% ALTAN'S concerts, you will be able to hear great fiddling
%% and beautiful singing by Mair\'ead Ni Mhaonaigh. What
%% a joy it is to hear her perform. I hope I get to do that
%% again real soon!
%%endtext

%%sep 1 1 500

%%sep 1 1 500

